display-calibration/home-desktop/dell-2415h/dell-u2415h.ti3
CTI3   

DESCRIPTOR "Argyll Calibration Target chart information 3"
ORIGINATOR "Argyll dispread"
CREATED "Tue Mar  3 17:10:35 2026"
DEVICE_CLASS "DISPLAY"
SINGLE_DIM_STEPS "5"
COMP_GREY_STEPS "52"
MULTI_DIM_STEPS "5"
COLOR_REP "RGB_XYZ"
TARGET_INSTRUMENT "X-Rite i1 DisplayPro, ColorMunki Display"
DISPLAY_TYPE_REFRESH "NO"
DISPLAY_TYPE_BASE_ID "1"
INSTRUMENT_TYPE_SPECTRAL "NO"
LUMINANCE_XYZ_CDM2 "124.062479 130.566618 142.019423"
NORMALIZED_TO_Y_100 "YES"
VIDEO_LUT_CALIBRATION_POSSIBLE "YES"

BEGIN_ARGYLL_COLPROF_ARGS
-v -qh -aX -bn -C "No copyright. Created with DisplayCAL 3.9.17 and Argyll CMS 3.3.0" -M "Monitor 2, Output DP-1"
END_ARGYLL_COLPROF_ARGS

OBSERVER "1931_2"
USE_BLACK_POINT_COMPENSATION "NO"
BLACK_POINT_CORRECTION "0.0"
HIRES_B2A "YES"
HIRES_B2A_SIZE "-1"
SMOOTH_B2A "YES"
PATCH_SEQUENCE "OPTIMIZE_DISPLAY_RESPONSE_DELAY"

NUMBER_OF_FIELDS 7
BEGIN_DATA_FORMAT
SAMPLE_ID RGB_R RGB_G RGB_B XYZ_X XYZ_Y XYZ_Z
END_DATA_FORMAT

NUMBER_OF_SETS 175
BEGIN_DATA
1 100.0000 100.0000 100.0000 95.01853 100.0000 108.7716
2 100.0000 100.0000 75.00000 87.20035 96.66299 68.25628
3 100.0000 100.0000 100.0000 95.08486 100.0240 108.7715
4 100.0000 100.0000 100.0000 95.08486 100.0240 108.7715
5 0.000000 0.000000 0.000000 0.110570 0.105145 0.194323
6 25.00000 0.000000 0.000000 2.055485 1.065559 0.222266
7 50.00000 0.000000 0.000000 10.09824 5.022850 0.307893
8 75.00000 0.000000 0.000000 22.47278 11.11371 0.436342
9 100.0000 0.000000 0.000000 37.79087 18.64250 0.595813
10 100.0000 0.000000 25.00000 39.03179 19.18513 5.939723
11 100.0000 25.00000 25.00000 42.12410 24.10983 7.039292
12 100.0000 50.00000 25.00000 50.33287 39.71534 9.524817
13 100.0000 75.00000 25.00000 61.82395 62.00996 12.89761
14 0.000000 0.000000 25.00000 0.916794 0.449105 4.500501
15 25.00000 0.000000 25.00000 2.974418 1.461475 4.834880
16 75.00000 0.000000 100.0000 39.96651 18.58899 90.73044
17 100.0000 0.000000 100.0000 55.68421 26.27683 91.88024
18 1.960800 1.960800 1.960800 0.145535 0.141238 0.234819
19 3.921600 3.921600 3.921600 0.202736 0.201285 0.299380
20 5.882400 5.882400 5.882400 0.306481 0.311112 0.415079
21 7.843100 7.843100 7.843100 0.443386 0.456346 0.570069
22 9.803900 9.803900 9.803900 0.661880 0.689016 0.812869
23 11.76500 11.76500 11.76500 0.951531 0.999282 1.137129
24 13.72600 13.72600 13.72600 1.311542 1.377636 1.536737
25 15.68600 15.68600 15.68600 1.738827 1.826679 2.005164
26 17.64700 17.64700 17.64700 2.273605 2.396097 2.589535
27 19.60800 19.60800 19.60800 2.876155 3.041666 3.252821
28 21.56900 21.56900 21.56900 3.605186 3.819733 4.057448
29 23.52900 23.52900 23.52900 4.446015 4.721284 4.990635
30 27.45100 27.45100 27.45100 6.488233 6.898323 7.244955
31 29.41200 29.41200 29.41200 7.652855 8.086144 8.515063
32 31.37300 31.37300 31.37300 8.923239 9.424215 9.908688
33 33.33300 33.33300 33.33300 10.20926 10.80728 11.35902
34 35.29400 35.29400 35.29400 11.62111 12.31026 12.93907
35 37.25500 37.25500 37.25500 13.17464 13.95425 14.66866
36 39.21600 39.21600 39.21600 14.82972 15.68250 16.47215
37 41.17600 41.17600 41.17600 16.52999 17.46816 18.37840
38 43.13700 43.13700 43.13700 18.33597 19.33512 20.35975
39 45.09800 45.09800 45.09800 20.21436 21.31643 22.46157
40 47.05900 47.05900 47.05900 22.23272 23.43616 24.68952
41 49.02000 49.02000 49.02000 24.15309 25.47481 26.87890
42 50.98000 50.98000 50.98000 26.00927 27.39931 28.98668
43 52.94100 52.94100 52.94100 28.18936 29.65802 31.44378
44 54.90200 54.90200 54.90200 30.29194 31.80224 33.75626
45 56.86300 56.86300 56.86300 32.56639 34.28837 36.21554
46 58.82400 58.82400 58.82400 34.80485 36.75127 38.81843
47 60.78400 60.78400 60.78400 37.30297 39.28781 41.70808
48 62.74500 62.74500 62.74500 39.79435 41.88041 44.45474
49 64.70600 64.70600 64.70600 42.31607 44.47381 47.34493
50 66.66700 66.66700 66.66700 44.83778 47.06720 50.23512
51 68.62700 68.62700 68.62700 47.32916 49.65980 52.98179
52 70.58800 70.58800 70.58800 49.85088 52.25319 55.87198
53 72.54900 72.54900 72.54900 52.32985 54.87942 58.76281
54 76.47100 76.47100 76.47100 57.39688 60.12306 64.54373
55 78.43100 78.43100 78.43100 59.96577 62.83016 67.43501
56 80.39200 80.39200 80.39200 62.63134 65.56207 70.46971
57 82.35300 82.35300 82.35300 65.30133 68.44052 73.50614
58 84.31400 84.31400 84.31400 68.28262 71.65286 76.83214
59 86.27500 86.27500 86.27500 71.28750 74.92205 80.15869
60 88.23500 88.23500 88.23500 74.32148 78.31613 83.91763
61 90.19600 90.19600 90.19600 77.51173 81.81510 87.67692
62 92.15700 92.15700 92.15700 80.94249 85.47740 91.72415
63 94.11800 94.11800 94.11800 84.51710 89.27822 95.91589
64 96.07800 96.07800 96.07800 88.14563 93.13668 100.2517
65 98.03900 98.03900 98.03900 91.65622 96.71087 104.5848
66 25.00000 25.00000 0.000000 4.138763 5.002166 0.723210
67 50.00000 25.00000 0.000000 12.60019 9.311582 0.837953
68 75.00000 25.00000 0.000000 25.23636 15.67478 0.988706
69 100.0000 25.00000 0.000000 40.72624 23.45239 1.185450
70 100.0000 50.00000 0.000000 48.85245 38.95643 3.133945
71 50.00000 50.00000 0.000000 20.20326 24.30947 2.733944
72 75.00000 50.00000 0.000000 33.05867 30.88457 2.918404
73 25.00000 50.00000 0.000000 11.44005 19.69642 2.591571
74 25.00000 75.00000 0.000000 22.21627 41.38875 5.354341
75 50.00000 75.00000 0.000000 31.22870 46.18766 5.511870
76 75.00000 75.00000 0.000000 44.15806 52.93341 5.712998
77 100.0000 75.00000 0.000000 60.24499 61.15832 5.948724
78 25.00000 100.0000 0.000000 36.80830 71.10927 9.163098
79 50.00000 100.0000 0.000000 46.16314 76.17499 9.351749
80 75.00000 100.0000 0.000000 59.27672 83.08260 9.574466
81 100.0000 100.0000 0.000000 75.57090 91.52622 9.829671
82 100.0000 100.0000 25.00000 77.23125 92.32374 17.27467
83 50.00000 0.000000 25.00000 11.14826 5.480711 5.162713
84 50.00000 25.00000 50.00000 17.45593 11.48845 25.33538
85 0.000000 25.00000 0.000000 1.887700 3.745599 0.669648
86 0.000000 25.00000 25.00000 2.813460 4.199237 5.447451
87 25.49000 25.49000 25.49000 5.383825 5.725891 6.007409
88 50.00000 25.00000 25.00000 13.72840 9.862702 6.164065
89 75.00000 25.00000 25.00000 26.46294 16.26953 6.578532
90 0.000000 50.00000 0.000000 8.861101 18.14012 2.507684
91 0.000000 50.00000 25.00000 9.944873 18.78789 7.760915
92 25.00000 50.00000 25.00000 12.65710 20.36995 8.161437
93 50.00000 50.00000 25.00000 21.50158 25.04135 8.577201
94 75.00000 50.00000 25.00000 34.43709 31.67477 9.029611
95 0.000000 75.00000 0.000000 19.38781 39.64660 5.253894
96 0.000000 75.00000 25.00000 20.52349 40.32965 10.95555
97 25.00000 75.00000 25.00000 23.52082 42.15473 11.42996
98 50.00000 75.00000 25.00000 32.65914 46.97921 11.86915
99 75.00000 75.00000 25.00000 45.71172 53.75045 12.33936
100 0.000000 100.0000 0.000000 33.72966 69.18123 9.042951
101 0.000000 100.0000 25.00000 34.95777 69.81045 15.29299
102 25.00000 100.0000 25.00000 38.20011 71.82127 15.76262
103 50.00000 100.0000 25.00000 47.68462 76.91265 16.25078
104 75.00000 100.0000 25.00000 60.81112 83.85455 16.73755
105 0.000000 0.000000 50.00000 4.259787 1.874396 22.37767
106 25.00000 0.000000 50.00000 6.457532 2.950121 23.17355
107 50.00000 0.000000 50.00000 14.75234 7.024286 23.82276
108 75.00000 0.000000 50.00000 27.34006 13.20656 24.48442
109 100.0000 0.000000 50.00000 42.78964 20.80536 25.21682
110 100.0000 0.000000 75.00000 48.41150 23.20345 54.09502
111 100.0000 25.00000 75.00000 51.67832 28.25567 55.86081
112 75.00000 0.000000 25.00000 23.61720 11.61211 5.521515
113 75.00000 25.00000 50.00000 30.29957 17.93950 26.06618
114 100.0000 25.00000 50.00000 46.07229 25.82166 26.84037
115 25.00000 25.00000 50.00000 8.786978 7.075889 24.67212
116 25.00000 50.00000 50.00000 16.38107 22.03364 27.54327
117 75.00000 50.00000 50.00000 38.37246 33.42250 28.98660
118 100.0000 50.00000 50.00000 54.39361 41.57880 29.85286
119 100.0000 50.00000 75.00000 60.15059 44.09527 59.16246
120 25.00000 75.00000 50.00000 27.31183 43.85411 31.33182
121 50.00000 75.00000 50.00000 36.59996 48.76102 32.05480
122 75.00000 75.00000 50.00000 49.70598 55.53365 32.77782
123 100.0000 75.00000 50.00000 65.97331 63.87573 33.64487
124 100.0000 75.00000 75.00000 71.71788 66.42582 63.09864
125 25.00000 100.0000 50.00000 42.07382 73.52280 36.05578
126 50.00000 100.0000 50.00000 51.63172 78.67233 36.78010
127 75.00000 100.0000 50.00000 64.90518 85.64033 37.64818
128 100.0000 100.0000 50.00000 81.38835 94.16740 38.37249
129 25.00000 0.000000 75.00000 11.81123 5.235149 51.50715
130 50.00000 0.000000 75.00000 20.19755 9.348333 52.36958
131 75.00000 0.000000 75.00000 32.88493 15.56693 53.23210
132 75.00000 25.00000 75.00000 35.86061 20.31797 54.99598
133 75.00000 50.00000 100.0000 51.47007 39.12880 97.08827
134 25.00000 25.00000 75.00000 14.23432 9.408703 53.41103
135 25.00000 50.00000 100.0000 29.17042 27.63110 94.92543
136 0.000000 25.00000 50.00000 6.276444 5.699071 23.89437
137 0.000000 25.00000 75.00000 11.61890 7.984648 52.40341
138 0.000000 50.00000 75.00000 19.03294 22.74453 55.55461
139 25.00000 50.00000 75.00000 21.92080 24.44363 56.56394
140 50.00000 50.00000 75.00000 31.01667 29.22240 57.43020
141 75.00000 50.00000 75.00000 43.96644 35.89014 58.15288
142 74.51000 74.51000 74.51000 54.91790 57.49683 61.65290
143 0.000000 75.00000 75.00000 29.74818 44.38002 59.48743
144 25.00000 75.00000 75.00000 32.83947 46.29773 60.49819
145 50.00000 75.00000 75.00000 42.22427 51.22944 61.36460
146 0.000000 75.00000 50.00000 24.27445 41.99405 30.46512
147 0.000000 100.0000 50.00000 38.72394 71.45294 35.18840
148 0.000000 100.0000 75.00000 44.19200 73.81646 64.49786
149 25.00000 100.0000 75.00000 47.70489 75.93515 65.50857
150 50.00000 100.0000 75.00000 57.31671 81.14232 66.37695
151 75.00000 100.0000 75.00000 70.65650 88.13435 67.24492
152 75.00000 100.0000 100.0000 78.37801 91.44655 107.6168
153 25.00000 0.000000 100.0000 18.82808 8.190756 88.71769
154 50.00000 0.000000 100.0000 27.28187 12.34419 89.72390
155 0.000000 0.000000 75.00000 9.545991 4.118157 50.64486
156 0.000000 0.000000 100.0000 16.42067 7.025871 87.42458
157 0.000000 25.00000 100.0000 18.64318 10.97644 89.90172
158 25.00000 25.00000 100.0000 21.33863 12.45072 91.05317
159 50.00000 25.00000 100.0000 30.29204 16.96426 92.20447
160 75.00000 25.00000 100.0000 43.19572 23.43977 93.35619
161 100.0000 25.00000 100.0000 59.09769 31.43590 94.50860
162 100.0000 50.00000 100.0000 67.73849 47.39236 98.38544
163 50.00000 25.00000 75.00000 23.01478 13.87029 54.27533
164 50.00000 50.00000 100.0000 38.40571 32.40184 95.93447
165 0.000000 50.00000 50.00000 13.56514 20.39266 26.76321
166 0.000000 50.00000 100.0000 26.13196 25.84955 93.62861
167 0.000000 75.00000 100.0000 37.02247 47.54583 98.27960
168 25.00000 75.00000 100.0000 40.30711 49.51315 99.57721
169 50.00000 75.00000 100.0000 49.77617 54.50329 100.7312
170 75.00000 75.00000 100.0000 62.96646 61.33436 101.7418
171 100.0000 75.00000 100.0000 79.48105 69.78369 103.0398
172 0.000000 100.0000 100.0000 51.61798 76.98621 104.0076
173 25.00000 100.0000 100.0000 55.21513 79.16332 105.3059
174 50.00000 100.0000 100.0000 64.98996 84.41933 106.3176
175 100.0000 100.0000 100.0000 95.04212 100.0569 108.7722
END_DATA
CAL    

DESCRIPTOR "Argyll Device Calibration State"
ORIGINATOR "Argyll dispread"
CREATED "Tue Mar  3 17:10:35 2026"
DEVICE_CLASS "DISPLAY"
COLOR_REP "RGB"

BEGIN_ARGYLL_DISPCAL_ARGS
-v2 -ql -w0.3127,0.329 -gs -f1.0 -k0 -A4.0 -d2 -c1 -yn -P0.5,0.5,1.5 -X "WLEDFamily_07Feb11.ccss"
END_ARGYLL_DISPCAL_ARGS


NUMBER_OF_FIELDS 4
BEGIN_DATA_FORMAT
RGB_I RGB_R RGB_G RGB_B
END_DATA_FORMAT

NUMBER_OF_SETS 256
BEGIN_DATA
0.00000000 0.00000000 0.00000000 0.00000000
0.00392157 0.00874672 0.00909885 0.00882788
0.00784314 0.01689090 0.01752440 0.01706020
0.01176470 0.02449280 0.02534860 0.02475520
0.01568630 0.03160480 0.03263370 0.03196390
0.01960780 0.03827230 0.03943060 0.03873000
0.02352940 0.04449420 0.04575230 0.04505110
0.02745100 0.05025280 0.05161290 0.05093070
0.03137250 0.05558300 0.05704700 0.05639790
0.03529410 0.06054110 0.06211360 0.06150870
0.03921570 0.06517690 0.06686630 0.06631520
0.04313730 0.06953080 0.07134920 0.07085580
0.04705880 0.07364090 0.07560690 0.07516860
0.05098040 0.07755180 0.07968210 0.07929820
0.05490200 0.08131020 0.08360850 0.08328440
0.05882350 0.08494780 0.08741530 0.08715780
0.06274510 0.08849660 0.09111950 0.09093600
0.06666670 0.09197360 0.09474630 0.09464100
0.07058820 0.09540170 0.09830540 0.09828330
0.07450980 0.09878660 0.10181900 0.10188400
0.07843140 0.10215500 0.10530000 0.10546000
0.08235290 0.10551300 0.10874700 0.10900900
0.08627450 0.10886000 0.11217400 0.11254200
0.09019610 0.11221200 0.11558300 0.11606000
0.09411760 0.11556400 0.11896900 0.11955400
0.09803920 0.11891000 0.12232800 0.12301800
0.10196100 0.12224700 0.12567400 0.12646800
0.10588200 0.12558400 0.12900500 0.12990100
0.10980400 0.12891500 0.13232000 0.13331600
0.11372500 0.13223700 0.13561300 0.13670800
0.11764700 0.13554500 0.13887800 0.14007500
0.12156900 0.13883200 0.14212700 0.14343500
0.12549000 0.14211300 0.14536400 0.14678600
0.12941200 0.14538900 0.14857800 0.15012200
0.13333300 0.14865100 0.15177300 0.15344800
0.13725500 0.15190200 0.15494800 0.15676300
0.14117600 0.15514600 0.15809800 0.16006300
0.14509800 0.15837500 0.16122100 0.16335200
0.14902000 0.16158800 0.16433200 0.16664100
0.15294100 0.16480400 0.16743900 0.16992900
0.15686300 0.16802900 0.17054200 0.17321100
0.16078400 0.17126000 0.17363600 0.17648500
0.16470600 0.17449100 0.17672000 0.17975300
0.16862700 0.17772400 0.17979800 0.18301600
0.17254900 0.18096200 0.18287100 0.18627000
0.17647100 0.18420500 0.18593400 0.18950500
0.18039200 0.18743900 0.18897900 0.19272200
0.18431400 0.19065900 0.19200900 0.19592400
0.18823500 0.19386400 0.19503000 0.19913100
0.19215700 0.19706200 0.19806000 0.20234900
0.19607800 0.20026900 0.20110400 0.20556600
0.20000000 0.20348400 0.20415700 0.20877600
0.20392200 0.20668400 0.20720900 0.21197700
0.20784300 0.20986800 0.21025900 0.21516800
0.21176500 0.21302900 0.21330600 0.21835700
0.21568600 0.21617000 0.21635300 0.22154700
0.21960800 0.21929900 0.21940900 0.22473600
0.22352900 0.22241500 0.22247000 0.22791400
0.22745100 0.22552000 0.22553600 0.23106900
0.23137300 0.22860000 0.22858900 0.23421300
0.23529400 0.23165000 0.23162700 0.23735200
0.23921600 0.23468600 0.23466100 0.24048300
0.24313700 0.23771100 0.23769200 0.24360400
0.24705900 0.24072300 0.24071600 0.24672700
0.25098000 0.24372700 0.24373900 0.24985500
0.25490200 0.24673400 0.24677100 0.25299500
0.25882400 0.24974500 0.24981300 0.25614200
0.26274500 0.25277400 0.25287000 0.25928700
0.26666700 0.25581600 0.25593300 0.26242900
0.27058800 0.25886500 0.25899600 0.26556400
0.27451000 0.26191800 0.26205800 0.26869500
0.27843100 0.26497500 0.26511800 0.27181500
0.28235300 0.26803900 0.26817700 0.27492500
0.28627500 0.27110200 0.27123100 0.27803500
0.29019600 0.27416800 0.27427900 0.28115000
0.29411800 0.27725000 0.27733600 0.28427100
0.29803900 0.28035000 0.28040300 0.28739900
0.30196100 0.28346800 0.28348400 0.29052300
0.30588200 0.28660100 0.28657600 0.29363000
0.30980400 0.28973900 0.28967600 0.29671700
0.31372500 0.29286600 0.29276700 0.29979200
0.31764700 0.29597600 0.29584500 0.30287200
0.32156900 0.29907500 0.29891800 0.30596500
0.32549000 0.30218400 0.30199700 0.30907000
0.32941200 0.30531100 0.30509500 0.31218200
0.33333300 0.30845500 0.30821000 0.31530000
0.33725500 0.31160900 0.31133500 0.31842600
0.34117600 0.31476700 0.31446700 0.32155600
0.34509800 0.31793100 0.31760800 0.32469100
0.34902000 0.32109800 0.32075600 0.32784600
0.35294100 0.32427100 0.32391400 0.33102600
0.35686300 0.32746200 0.32709500 0.33423400
0.36078400 0.33067700 0.33030300 0.33747300
0.36470600 0.33392200 0.33354000 0.34072600
0.36862700 0.33720100 0.33681500 0.34399000
0.37254900 0.34048900 0.34010300 0.34726700
0.37647100 0.34378700 0.34339900 0.35055200
0.38039200 0.34709200 0.34670500 0.35384500
0.38431400 0.35040500 0.35001900 0.35714200
0.38823500 0.35372500 0.35334300 0.36044500
0.39215700 0.35705100 0.35667200 0.36376100
0.39607800 0.36039000 0.36001100 0.36708900
0.40000000 0.36374700 0.36336800 0.37041900
0.40392200 0.36711500 0.36674000 0.37375700
0.40784300 0.37048300 0.37011700 0.37711700
0.41176500 0.37385900 0.37350400 0.38050300
0.41568600 0.37725500 0.37691600 0.38391400
0.41960800 0.38067000 0.38035400 0.38736100
0.42352900 0.38410300 0.38381900 0.39086000
0.42745100 0.38756900 0.38732000 0.39441800
0.43137300 0.39108200 0.39087100 0.39803500
0.43529400 0.39464700 0.39447800 0.40171100
0.43921600 0.39825900 0.39813600 0.40540100
0.44313700 0.40191600 0.40184500 0.40907700
0.44705900 0.40557900 0.40556400 0.41273400
0.45098000 0.40921500 0.40926400 0.41637000
0.45490200 0.41281800 0.41293600 0.42000100
0.45882400 0.41638700 0.41658400 0.42364000
0.46274500 0.41994200 0.42022400 0.42728100
0.46666700 0.42349700 0.42386500 0.43093100
0.47058800 0.42704400 0.42750200 0.43459400
0.47451000 0.43058800 0.43114500 0.43826900
0.47843100 0.43413100 0.43479200 0.44196200
0.48235300 0.43767400 0.43844400 0.44567300
0.48627500 0.44122400 0.44210900 0.44938900
0.49019600 0.44477700 0.44578600 0.45309200
0.49411800 0.44832800 0.44945700 0.45678500
0.49803900 0.45185900 0.45311000 0.46048500
0.50196100 0.45537100 0.45674800 0.46419200
0.50588200 0.45888500 0.46039100 0.46789700
0.50980400 0.46240100 0.46403400 0.47160000
0.51372500 0.46590900 0.46766600 0.47529900
0.51764700 0.46940300 0.47129000 0.47899400
0.52156900 0.47288500 0.47490400 0.48269100
0.52549000 0.47635500 0.47850900 0.48638600
0.52941200 0.47981500 0.48210700 0.49007900
0.53333300 0.48326500 0.48569600 0.49377600
0.53725500 0.48670200 0.48927500 0.49748700
0.54117600 0.49012700 0.49285000 0.50121400
0.54509800 0.49354100 0.49643100 0.50497500
0.54902000 0.49695900 0.50002000 0.50875200
0.55294100 0.50038500 0.50364900 0.51253100
0.55686300 0.50384900 0.50730700 0.51630800
0.56078400 0.50734000 0.51097500 0.52008500
0.56470600 0.51084400 0.51465100 0.52386300
0.56862700 0.51436000 0.51833400 0.52764300
0.57254900 0.51788800 0.52202600 0.53141900
0.57647100 0.52142900 0.52572800 0.53519500
0.58039200 0.52498500 0.52943700 0.53896400
0.58431400 0.52855600 0.53315500 0.54273500
0.58823500 0.53214000 0.53687900 0.54651900
0.59215700 0.53573700 0.54060600 0.55030800
0.59607800 0.53934000 0.54435100 0.55409300
0.60000000 0.54296800 0.54810900 0.55788100
0.60392200 0.54662400 0.55187000 0.56168200
0.60784300 0.55029100 0.55563200 0.56549800
0.61176500 0.55396500 0.55941200 0.56933600
0.61568600 0.55765600 0.56321400 0.57319500
0.61960800 0.56137000 0.56704400 0.57705200
0.62352900 0.56511600 0.57090300 0.58089200
0.62745100 0.56889700 0.57478200 0.58471200
0.63137300 0.57271000 0.57865400 0.58853300
0.63529400 0.57652800 0.58251800 0.59235700
0.63921600 0.58033600 0.58638300 0.59617900
0.64313700 0.58413500 0.59026400 0.60000200
0.64705900 0.58795000 0.59415400 0.60383600
0.65098000 0.59178700 0.59805100 0.60768900
0.65490200 0.59564300 0.60198100 0.61156100
0.65882400 0.59952400 0.60594600 0.61545400
0.66274500 0.60344900 0.60993900 0.61937100
0.66666700 0.60739900 0.61396300 0.62330300
0.67058800 0.61137300 0.61802200 0.62725200
0.67451000 0.61537900 0.62210200 0.63123200
0.67843100 0.61941000 0.62620400 0.63523800
0.68235300 0.62345700 0.63034100 0.63927100
0.68627500 0.62752200 0.63451200 0.64335300
0.69019600 0.63161300 0.63871800 0.64750200
0.69411800 0.63571900 0.64298700 0.65173500
0.69803900 0.63985200 0.64734100 0.65605700
0.70196100 0.64404400 0.65180100 0.66045900
0.70588200 0.64832100 0.65637000 0.66493900
0.70980400 0.65269600 0.66104200 0.66949000
0.71372500 0.65717000 0.66581700 0.67401200
0.71764700 0.66173000 0.67065500 0.67847600
0.72156900 0.66638000 0.67542400 0.68288100
0.72549000 0.67107300 0.68011700 0.68721900
0.72941200 0.67570400 0.68472700 0.69149400
0.73333300 0.68027100 0.68925300 0.69572300
0.73725500 0.68476400 0.69370900 0.69993400
0.74117600 0.68917600 0.69812600 0.70414400
0.74509800 0.69352200 0.70252300 0.70837500
0.74902000 0.69783800 0.70693400 0.71261500
0.75294100 0.70214800 0.71134700 0.71686300
0.75686300 0.70649100 0.71575900 0.72113500
0.76078400 0.71085600 0.72018000 0.72543400
0.76470600 0.71523500 0.72461300 0.72976900
0.76862700 0.71964000 0.72906400 0.73412400
0.77254900 0.72407400 0.73351400 0.73848800
0.77647100 0.72855000 0.73796200 0.74286100
0.78039200 0.73304500 0.74240800 0.74725200
0.78431400 0.73754500 0.74685500 0.75168700
0.78823500 0.74205100 0.75132100 0.75616200
0.79215700 0.74656200 0.75581000 0.76067100
0.79607800 0.75110100 0.76031500 0.76521300
0.80000000 0.75568300 0.76483800 0.76980000
0.80392200 0.76030800 0.76938700 0.77443400
0.80784300 0.76497300 0.77395900 0.77910400
0.81176500 0.76967900 0.77853900 0.78382600
0.81568600 0.77441900 0.78314500 0.78860500
0.81960800 0.77917900 0.78779100 0.79346700
0.82352900 0.78397500 0.79250200 0.79841900
0.82745100 0.78882500 0.79728500 0.80343600
0.83137300 0.79376000 0.80212900 0.80842100
0.83529400 0.79877700 0.80694500 0.81335500
0.83921600 0.80384100 0.81170200 0.81823000
0.84313700 0.80885400 0.81639800 0.82307800
0.84705900 0.81379700 0.82105400 0.82792100
0.85098000 0.81867900 0.82570200 0.83274800
0.85490200 0.82354700 0.83032900 0.83756500
0.85882400 0.82841200 0.83493800 0.84237500
0.86274500 0.83326500 0.83955200 0.84717100
0.86666700 0.83812100 0.84417200 0.85197100
0.87058800 0.84298400 0.84879900 0.85679000
0.87451000 0.84784200 0.85345600 0.86160800
0.87843100 0.85273200 0.85813800 0.86637900
0.88235300 0.85765600 0.86281200 0.87109700
0.88627500 0.86257500 0.86745200 0.87576600
0.89019600 0.86745100 0.87206300 0.88040100
0.89411800 0.87228800 0.87665600 0.88501700
0.89803900 0.87709700 0.88125000 0.88962100
0.90196100 0.88189200 0.88585300 0.89419200
0.90588200 0.88668900 0.89046900 0.89870000
0.90980400 0.89148000 0.89506100 0.90315700
0.91372500 0.89623300 0.89961700 0.90759900
0.91764700 0.90094300 0.90416300 0.91202700
0.92156900 0.90565700 0.90872400 0.91642400
0.92549000 0.91039200 0.91328700 0.92079600
0.92941200 0.91512100 0.91783500 0.92516400
0.93333300 0.91984100 0.92239200 0.92951700
0.93725500 0.92458300 0.92695500 0.93385500
0.94117600 0.92932100 0.93151200 0.93818200
0.94509800 0.93405800 0.93607600 0.94249100
0.94902000 0.93879400 0.94063800 0.94678400
0.95294100 0.94352700 0.94520000 0.95106200
0.95686300 0.94825600 0.94976200 0.95532500
0.96078400 0.95298200 0.95432400 0.95957200
0.96470600 0.95770200 0.95888400 0.96380200
0.96862700 0.96241600 0.96344300 0.96801100
0.97254900 0.96712300 0.96799900 0.97220200
0.97647100 0.97183000 0.97255600 0.97637800
0.98039200 0.97653800 0.97711400 0.98053900
0.98431400 0.98124800 0.98167300 0.98468500
0.98823500 0.98595900 0.98623300 0.98881500
0.99215700 0.99067200 0.99079400 0.99293000
0.99607800 0.99538600 0.99535600 0.99703000
1.00000000 1.00000000 0.99992000 1.00000000
END_DATA
