display-calibration/home-desktop/phillips-346b/Monitor_1_#1_2026-03-03_13-03_2.2_F-S_XYZLUT+MTX.ti3
CTI3   

DESCRIPTOR "Argyll Calibration Target chart information 3"
ORIGINATOR "Argyll dispread"
CREATED "Tue Mar  3 17:42:05 2026"
DEVICE_CLASS "DISPLAY"
SINGLE_DIM_STEPS "5"
COMP_GREY_STEPS "52"
MULTI_DIM_STEPS "5"
COLOR_REP "RGB_XYZ"
TARGET_INSTRUMENT "X-Rite i1 DisplayPro, ColorMunki Display"
DISPLAY_TYPE_REFRESH "NO"
DISPLAY_TYPE_BASE_ID "1"
INSTRUMENT_TYPE_SPECTRAL "NO"
LUMINANCE_XYZ_CDM2 "131.235554 138.544220 150.703366"
NORMALIZED_TO_Y_100 "YES"
VIDEO_LUT_CALIBRATION_POSSIBLE "YES"

BEGIN_ARGYLL_COLPROF_ARGS
-v -qh -aX -bn -C "No copyright. Created with DisplayCAL 3.9.17 and Argyll CMS 3.3.0" -M "Monitor 1, Output DP-2"
END_ARGYLL_COLPROF_ARGS

OBSERVER "1931_2"
USE_BLACK_POINT_COMPENSATION "NO"
BLACK_POINT_CORRECTION "0.0"
HIRES_B2A "YES"
HIRES_B2A_SIZE "-1"
SMOOTH_B2A "YES"
PATCH_SEQUENCE "OPTIMIZE_DISPLAY_RESPONSE_DELAY"

NUMBER_OF_FIELDS 7
BEGIN_DATA_FORMAT
SAMPLE_ID RGB_R RGB_G RGB_B XYZ_X XYZ_Y XYZ_Z
END_DATA_FORMAT

NUMBER_OF_SETS 175
BEGIN_DATA
1 100.00000 100.00000 100.00000 94.724670 100.00000 108.77640
2 100.00000 100.00000 75.000000 86.587110 96.124190 67.339680
3 100.00000 100.00000 100.00000 94.724670 100.00000 108.77640
4 100.00000 100.00000 100.00000 94.724670 100.00000 108.77640
5 0.0000000 0.0000000 0.0000000 0.0272418 0.0226382 0.0561817
6 25.000000 0.0000000 0.0000000 2.0911050 0.9628060 0.1172700
7 50.000000 0.0000000 0.0000000 9.8907540 4.5136690 0.3296850
8 75.000000 0.0000000 0.0000000 23.562280 10.732060 0.6394030
9 100.00000 0.0000000 0.0000000 44.648300 20.304050 0.9261580
10 100.00000 0.0000000 25.000000 45.957000 20.838110 7.1564600
11 100.00000 25.000000 25.000000 48.234640 25.806750 8.5014680
12 100.00000 50.000000 25.000000 53.892680 39.135690 10.800260
13 100.00000 75.000000 25.000000 63.014760 60.426740 14.162810
14 0.0000000 0.0000000 25.000000 0.8727920 0.3617680 4.4828360
15 25.000000 0.0000000 25.000000 3.1891430 1.4124270 4.9916760
16 75.000000 0.0000000 100.00000 42.599990 19.102360 96.058740
17 100.00000 0.0000000 100.00000 63.464770 28.575160 97.269060
18 1.9608000 1.9608000 1.9608000 0.0617106 0.0587764 0.0984818
19 3.9216000 3.9216000 3.9216000 0.1312570 0.1317210 0.1790460
20 5.8824000 5.8824000 5.8824000 0.2588040 0.2695080 0.3290540
21 7.8431000 7.8431000 7.8431000 0.4432020 0.4686470 0.5468700
22 9.8039000 9.8039000 9.8039000 0.7022540 0.7478910 0.8567210
23 11.765000 11.765000 11.765000 1.0638350 1.1355670 1.2740500
24 13.726000 13.726000 13.726000 1.4895760 1.5868390 1.7537680
25 15.686000 15.686000 15.686000 1.9602220 2.0918380 2.3318810
26 17.647000 17.647000 17.647000 2.4986030 2.6653530 2.9802390
27 19.608000 19.608000 19.608000 3.1006040 3.3017210 3.7305260
28 21.569000 21.569000 21.569000 3.7591530 4.0085980 4.5595660
29 23.529000 23.529000 23.529000 4.4833360 4.7875990 5.4298270
30 27.451000 27.451000 27.451000 6.1181230 6.5228970 7.3394360
31 29.412000 29.412000 29.412000 7.0779570 7.5406370 8.4648780
32 31.373000 31.373000 31.373000 8.1134100 8.6197590 9.6694050
33 33.333000 33.333000 33.333000 9.2760760 9.8601100 10.976220
34 35.294000 35.294000 35.294000 10.511190 11.135070 12.447440
35 37.255000 37.255000 37.255000 11.819790 12.511120 14.016130
36 39.216000 39.216000 39.216000 13.242420 14.009270 15.572100
37 41.176000 41.176000 41.176000 14.669840 15.592540 17.237260
38 43.137000 43.137000 43.137000 16.240110 17.306540 19.073050
39 45.098000 45.098000 45.098000 17.844770 18.936440 20.985040
40 47.059000 47.059000 47.059000 19.458980 20.704580 22.924030
41 49.020000 49.020000 49.020000 21.148350 22.548690 24.818120
42 50.980000 50.980000 50.980000 22.799860 24.285820 26.742430
43 52.941000 52.941000 52.941000 24.683870 26.315010 28.947500
44 54.902000 54.902000 54.902000 26.562580 28.344060 31.127530
45 56.863000 56.863000 56.863000 28.690190 30.580620 33.579430
46 58.824000 58.824000 58.824000 30.766980 32.762860 35.895560
47 60.784000 60.784000 60.784000 32.985700 35.022790 38.482620
48 62.745000 62.745000 62.745000 35.237180 37.421580 41.206580
49 64.706000 64.706000 64.706000 37.635920 39.919220 43.930860
50 66.667000 66.667000 66.667000 40.016620 42.501380 46.656260
51 68.627000 68.627000 68.627000 42.579510 45.130300 49.651990
52 70.588000 70.588000 70.588000 45.168820 47.950910 52.649860
53 72.549000 72.549000 72.549000 47.827000 50.741320 55.782390
54 76.471000 76.471000 76.471000 53.481190 56.743960 62.321360
55 78.431000 78.431000 78.431000 56.539710 59.978830 65.727710
56 80.392000 80.392000 80.392000 59.517660 63.275590 69.135280
57 82.353000 82.353000 82.353000 62.586720 66.595720 72.678010
58 84.314000 84.314000 84.314000 65.853860 70.069040 76.356830
59 86.275000 86.275000 86.275000 69.223790 73.534050 80.034960
60 88.235000 88.235000 88.235000 72.608440 77.222430 83.851100
61 90.196000 90.196000 90.196000 76.061960 80.880610 87.801880
62 92.157000 92.157000 92.157000 79.713560 84.691970 91.888770
63 94.118000 94.118000 94.118000 83.511270 88.719140 96.248220
64 96.078000 96.078000 96.078000 87.259310 92.575040 100.19970
65 98.039000 98.039000 98.039000 91.002010 96.409780 104.42170
66 25.000000 25.000000 0.0000000 3.7322100 4.6000310 0.6803920
67 50.000000 25.000000 0.0000000 11.699740 8.3673710 0.9222090
68 75.000000 25.000000 0.0000000 25.521330 14.837240 1.2662620
69 100.00000 25.000000 0.0000000 46.653650 24.880980 1.6341810
70 100.00000 50.000000 0.0000000 52.115530 37.954550 3.6163550
71 50.000000 50.000000 0.0000000 17.058160 20.943780 2.8311330
72 75.000000 50.000000 0.0000000 30.916150 27.529970 3.1940040
73 25.000000 50.000000 0.0000000 8.9970450 17.131520 2.5847020
74 25.000000 75.000000 0.0000000 18.225930 38.711380 5.6334290
75 50.000000 75.000000 0.0000000 26.347970 42.546240 5.8722690
76 75.000000 75.000000 0.0000000 40.054880 49.033470 6.2167300
77 100.00000 75.000000 0.0000000 61.180180 59.297120 6.6025730
78 25.000000 100.00000 0.0000000 32.932020 71.848320 9.2567690
79 50.000000 100.00000 0.0000000 41.319920 75.689150 9.4834380
80 75.000000 100.00000 0.0000000 54.907580 81.908270 9.7870570
81 100.00000 100.00000 0.0000000 75.347000 91.338970 10.063680
82 100.00000 100.00000 25.000000 77.274370 92.184970 18.882100
83 50.000000 0.0000000 25.000000 11.168720 5.0429370 5.4331750
84 50.000000 25.000000 50.000000 16.602770 10.731280 23.578830
85 0.0000000 25.000000 0.0000000 1.3602900 3.2501050 0.5623460
86 0.0000000 25.000000 25.000000 2.4154230 3.9099780 5.5074010
87 25.490000 25.490000 25.490000 5.2289810 5.5752180 6.3016800
88 50.000000 25.000000 25.000000 13.254820 9.2547080 6.5983260
89 75.000000 25.000000 25.000000 27.116490 15.752910 7.2950690
90 0.0000000 50.000000 0.0000000 6.3979710 15.427430 2.4223750
91 0.0000000 50.000000 25.000000 7.6102790 16.360880 7.6484940
92 25.000000 50.000000 25.000000 10.497260 18.135490 8.2853790
93 50.000000 50.000000 25.000000 18.659470 22.056380 8.8007830
94 75.000000 50.000000 25.000000 32.615800 28.698120 9.5242090
95 0.0000000 75.000000 0.0000000 15.526170 37.015650 5.4817980
96 0.0000000 75.000000 25.000000 16.811480 37.950990 11.053280
97 25.000000 75.000000 25.000000 19.723010 39.779240 11.701650
98 50.000000 75.000000 25.000000 28.088780 43.683470 12.206030
99 75.000000 75.000000 25.000000 41.831600 50.203620 12.911530
100 0.0000000 100.00000 0.0000000 29.983790 70.423050 9.1632320
101 0.0000000 100.00000 25.000000 31.368190 71.042940 15.831500
102 25.000000 100.00000 25.000000 34.602060 72.623660 16.475350
103 50.000000 100.00000 25.000000 43.132930 76.542230 16.977950
104 75.000000 100.00000 25.000000 56.828890 82.817160 17.689250
105 0.0000000 0.0000000 50.000000 3.9166600 1.6039550 20.394290
106 25.000000 0.0000000 50.000000 6.3679810 2.7140830 21.331820
107 50.000000 0.0000000 50.000000 14.388800 6.3618270 21.902070
108 75.000000 0.0000000 50.000000 28.154050 12.623040 22.838240
109 100.00000 0.0000000 50.000000 49.403100 22.250120 24.621710
110 100.00000 0.0000000 75.000000 54.962610 24.616170 53.666830
111 100.00000 25.000000 75.000000 57.448670 29.948750 55.612100
112 75.000000 0.0000000 25.000000 24.932100 11.297830 6.0745450
113 75.000000 25.000000 50.000000 30.509540 17.240400 24.547200
114 100.00000 25.000000 50.000000 51.771950 27.368700 26.437370
115 25.000000 25.000000 50.000000 8.3842430 6.8458090 22.959910
116 25.000000 50.000000 50.000000 13.879020 19.657120 25.268460
117 75.000000 50.000000 50.000000 36.080880 30.221910 26.901470
118 100.00000 50.000000 50.000000 57.476010 40.694530 28.928140
119 100.00000 50.000000 75.000000 63.139600 43.274240 58.040750
120 25.000000 75.000000 50.000000 23.171560 41.302600 29.000710
121 50.000000 75.000000 50.000000 31.533070 45.238710 29.676100
122 75.000000 75.000000 50.000000 45.429400 51.751870 30.620850
123 100.00000 75.000000 50.000000 66.605290 62.017760 32.515960
124 100.00000 75.000000 75.000000 72.309160 64.566530 61.627960
125 25.000000 100.00000 50.000000 38.217240 74.130330 34.858600
126 50.000000 100.00000 50.000000 46.715460 78.080030 35.397930
127 75.000000 100.00000 50.000000 60.460350 84.356230 36.340730
128 100.00000 100.00000 50.000000 81.034670 93.812380 38.229640
129 25.000000 0.0000000 75.000000 12.034600 5.1117300 50.433980
130 50.000000 0.0000000 75.000000 20.051450 8.7732590 50.837260
131 75.000000 0.0000000 75.000000 33.821210 15.030350 51.779680
132 75.000000 25.000000 75.000000 36.248370 19.820230 53.583370
133 75.000000 50.000000 100.00000 50.696280 37.355630 99.751190
134 25.000000 25.000000 75.000000 14.148450 9.4288030 52.233830
135 25.000000 50.000000 100.00000 28.508340 26.802160 98.671060
136 0.0000000 25.000000 50.000000 5.6078790 5.3077740 21.974290
137 0.0000000 25.000000 75.000000 11.227920 7.8192890 51.012850
138 0.0000000 50.000000 75.000000 16.517270 20.352620 53.298930
139 25.000000 50.000000 75.000000 19.635010 22.260240 54.522340
140 50.000000 50.000000 75.000000 27.865120 26.203910 55.063160
141 75.000000 50.000000 75.000000 41.805910 32.824240 56.008940
142 74.510000 74.510000 74.510000 50.574110 53.746050 58.916960
143 0.0000000 75.000000 75.000000 25.695190 41.921110 56.889410
144 25.000000 75.000000 75.000000 28.937950 43.874010 58.112620
145 50.000000 75.000000 75.000000 37.270860 47.809380 58.652750
146 0.0000000 75.000000 50.000000 20.082420 39.395720 27.912570
147 0.0000000 100.00000 50.000000 34.765550 72.501930 33.775920
148 0.0000000 100.00000 75.000000 40.391040 74.921640 63.022250
149 25.000000 100.00000 75.000000 43.927470 76.626260 64.105340
150 50.000000 100.00000 75.000000 52.465980 80.545020 64.644070
151 75.000000 100.00000 75.000000 66.210870 86.821220 65.586870
152 75.000000 100.00000 100.00000 74.564430 90.808650 107.83610
153 25.000000 0.0000000 100.00000 20.784480 9.1734300 95.119340
154 50.000000 0.0000000 100.00000 28.991690 12.882700 95.657490
155 0.0000000 0.0000000 75.000000 9.4618240 3.9439330 49.351690
156 0.0000000 0.0000000 100.00000 18.123090 7.9518880 94.443170
157 0.0000000 25.000000 100.00000 19.964200 12.108000 95.836430
158 25.000000 25.000000 100.00000 22.974050 13.777740 96.651360
159 50.000000 25.000000 100.00000 31.340890 17.735010 97.056130
160 75.000000 25.000000 100.00000 45.088930 24.223310 97.595200
161 100.00000 25.000000 100.00000 66.010720 34.217580 98.811440
162 100.00000 50.000000 100.00000 71.739760 47.703070 101.10640
163 50.000000 25.000000 75.000000 22.371430 13.314880 52.774010
164 50.000000 50.000000 100.00000 36.863490 30.791110 99.211700
165 0.0000000 50.000000 50.000000 10.866080 17.773230 24.244970
166 0.0000000 50.000000 100.00000 25.254910 24.806950 97.989070
167 0.0000000 75.000000 100.00000 34.371470 46.235860 101.30740
168 25.000000 75.000000 100.00000 37.716000 48.254450 102.12450
169 50.000000 75.000000 100.00000 46.207870 52.256990 102.52910
170 75.000000 75.000000 100.00000 59.830880 58.700010 103.06840
171 100.00000 75.000000 100.00000 80.694340 68.809740 104.28640
172 0.0000000 100.00000 100.00000 48.716910 78.877280 106.21920
173 25.000000 100.00000 100.00000 52.355110 80.647600 106.89630
174 50.000000 100.00000 100.00000 61.115080 84.656170 107.29930
175 100.00000 100.00000 100.00000 94.819950 100.16150 108.91320
END_DATA
CAL    

DESCRIPTOR "Argyll Device Calibration State"
ORIGINATOR "Argyll dispread"
CREATED "Tue Mar  3 17:42:05 2026"
DEVICE_CLASS "DISPLAY"
COLOR_REP "RGB"

BEGIN_ARGYLL_DISPCAL_ARGS
-v2 -ql -w0.3127,0.329 -gs -f1.0 -k0 -A4.0 -d1 -c1 -yn -P0.5,0.5,1.5 -X "WLEDFamily_07Feb11.ccss"
END_ARGYLL_DISPCAL_ARGS


NUMBER_OF_FIELDS 4
BEGIN_DATA_FORMAT
RGB_I RGB_R RGB_G RGB_B
END_DATA_FORMAT

NUMBER_OF_SETS 256
BEGIN_DATA
0.00000000 0.00000000 0.00000000 0.00000000
0.00392157 0.00836034 0.00823968 0.00794529
0.00784314 0.01596930 0.01573100 0.01525160
0.01176470 0.02292380 0.02257160 0.02199300
0.01568630 0.02930480 0.02884260 0.02823260
0.01960780 0.03518060 0.03461230 0.03402440
0.02352940 0.04062690 0.03995310 0.03941740
0.02745100 0.04571240 0.04495560 0.04446790
0.03137250 0.05048710 0.04967650 0.04923200
0.03529410 0.05499940 0.05414780 0.05375140
0.03921570 0.05930310 0.05840100 0.05805960
0.04313730 0.06343360 0.06246710 0.06218000
0.04705880 0.06741750 0.06638140 0.06614190
0.05098040 0.07127090 0.07016880 0.06996900
0.05490200 0.07499910 0.07383820 0.07367560
0.05882350 0.07861130 0.07739420 0.07727450
0.06274510 0.08213100 0.08085770 0.08078780
0.06666670 0.08558100 0.08423920 0.08422470
0.07058820 0.08897760 0.08755830 0.08760430
0.07450980 0.09233050 0.09081890 0.09093010
0.07843140 0.09565210 0.09403620 0.09421790
0.08235290 0.09894340 0.09721240 0.09746810
0.08627450 0.10221400 0.10035600 0.10068500
0.09019610 0.10546100 0.10346800 0.10387100
0.09411760 0.10868300 0.10655000 0.10702400
0.09803920 0.11189600 0.10961300 0.11015100
0.10196100 0.11510300 0.11267700 0.11326500
0.10588200 0.11830100 0.11574400 0.11636600
0.10980400 0.12148800 0.11881300 0.11945200
0.11372500 0.12468100 0.12188700 0.12252800
0.11764700 0.12789000 0.12499000 0.12561600
0.12156900 0.13110900 0.12812000 0.12871400
0.12549000 0.13434200 0.13127400 0.13182000
0.12941200 0.13758600 0.13445300 0.13493600
0.13333300 0.14085200 0.13765500 0.13805900
0.13725500 0.14414500 0.14089200 0.14120200
0.14117600 0.14745700 0.14416500 0.14437200
0.14509800 0.15078300 0.14746600 0.14756200
0.14902000 0.15412800 0.15079100 0.15077400
0.15294100 0.15748600 0.15414200 0.15401100
0.15686300 0.16085100 0.15750400 0.15726600
0.16078400 0.16424100 0.16087000 0.16052800
0.16470600 0.16766200 0.16425000 0.16380700
0.16862700 0.17110300 0.16764600 0.16710700
0.17254900 0.17455100 0.17103400 0.17041300
0.17647100 0.17800700 0.17440200 0.17370800
0.18039200 0.18148000 0.17775500 0.17699500
0.18431400 0.18497200 0.18110300 0.18027700
0.18823500 0.18846500 0.18445200 0.18355900
0.19215700 0.19196700 0.18779100 0.18682500
0.19607800 0.19548100 0.19113400 0.19007500
0.20000000 0.19902700 0.19448700 0.19331400
0.20392200 0.20260800 0.19786200 0.19655000
0.20784300 0.20621200 0.20126400 0.19979500
0.21176500 0.20983000 0.20469300 0.20305400
0.21568600 0.21345600 0.20814300 0.20632000
0.21960800 0.21707900 0.21161500 0.20958900
0.22352900 0.22070000 0.21511000 0.21286300
0.22745100 0.22432200 0.21862800 0.21614400
0.23137300 0.22792400 0.22217100 0.21943600
0.23529400 0.23148900 0.22572400 0.22274300
0.23921600 0.23503400 0.22926200 0.22605700
0.24313700 0.23856600 0.23279800 0.22936400
0.24705900 0.24208000 0.23633800 0.23267600
0.25098000 0.24558200 0.23987200 0.23600000
0.25490200 0.24908400 0.24339700 0.23933100
0.25882400 0.25260400 0.24692900 0.24267000
0.26274500 0.25614400 0.25048200 0.24602900
0.26666700 0.25968800 0.25405800 0.24941400
0.27058800 0.26323700 0.25763800 0.25283900
0.27451000 0.26679700 0.26122300 0.25628200
0.27843100 0.27037300 0.26481400 0.25974100
0.28235300 0.27396800 0.26841400 0.26321400
0.28627500 0.27760000 0.27201900 0.26670200
0.29019600 0.28127100 0.27564900 0.27020200
0.29411800 0.28498700 0.27930300 0.27372200
0.29803900 0.28874200 0.28299100 0.27727400
0.30196100 0.29250400 0.28671000 0.28085800
0.30588200 0.29627100 0.29043000 0.28448100
0.30980400 0.30005100 0.29414100 0.28813400
0.31372500 0.30385400 0.29785700 0.29178500
0.31764700 0.30767700 0.30158700 0.29543500
0.32156900 0.31151100 0.30533000 0.29909400
0.32549000 0.31535100 0.30907900 0.30277100
0.32941200 0.31920000 0.31281700 0.30646500
0.33333300 0.32305000 0.31655800 0.31016800
0.33725500 0.32690900 0.32030000 0.31386800
0.34117600 0.33078100 0.32404000 0.31757600
0.34509800 0.33467900 0.32778000 0.32128800
0.34902000 0.33859800 0.33152800 0.32500400
0.35294100 0.34250700 0.33530000 0.32872700
0.35686300 0.34640200 0.33907100 0.33246600
0.36078400 0.35027700 0.34282700 0.33623000
0.36470600 0.35413200 0.34656600 0.33999500
0.36862700 0.35796500 0.35028600 0.34375300
0.37254900 0.36177300 0.35398800 0.34750100
0.37647100 0.36555500 0.35766400 0.35123900
0.38039200 0.36929500 0.36131600 0.35496900
0.38431400 0.37299000 0.36495000 0.35868800
0.38823500 0.37664800 0.36855000 0.36240500
0.39215700 0.38029600 0.37211500 0.36611900
0.39607800 0.38393800 0.37565600 0.36980800
0.40000000 0.38758700 0.37918900 0.37347700
0.40392200 0.39126300 0.38271600 0.37714200
0.40784300 0.39497900 0.38625200 0.38081500
0.41176500 0.39874900 0.38980800 0.38449800
0.41568600 0.40256600 0.39339200 0.38820500
0.41960800 0.40637800 0.39701200 0.39194500
0.42352900 0.41017300 0.40065900 0.39572300
0.42745100 0.41395900 0.40429200 0.39954100
0.43137300 0.41774500 0.40790100 0.40336900
0.43529400 0.42155800 0.41149300 0.40716600
0.43921600 0.42539100 0.41507500 0.41093000
0.44313700 0.42925100 0.41866800 0.41466900
0.44705900 0.43314100 0.42227700 0.41839700
0.45098000 0.43705300 0.42591100 0.42212900
0.45490200 0.44098800 0.42958900 0.42586400
0.45882400 0.44495400 0.43329900 0.42962600
0.46274500 0.44892300 0.43704100 0.43341100
0.46666700 0.45287800 0.44083200 0.43721800
0.47058800 0.45684400 0.44467000 0.44105800
0.47451000 0.46084200 0.44852500 0.44493600
0.47843100 0.46486700 0.45240600 0.44883200
0.48235300 0.46890400 0.45633700 0.45275100
0.48627500 0.47296300 0.46032900 0.45671900
0.49019600 0.47704200 0.46436200 0.46074700
0.49411800 0.48115600 0.46844400 0.46481800
0.49803900 0.48530900 0.47257400 0.46893200
0.50196100 0.48949900 0.47674900 0.47309100
0.50588200 0.49372700 0.48096900 0.47729400
0.50980400 0.49799200 0.48522900 0.48153700
0.51372500 0.50230500 0.48952700 0.48581200
0.51764700 0.50661000 0.49386300 0.49011700
0.52156900 0.51086900 0.49824600 0.49445200
0.52549000 0.51508100 0.50264200 0.49882300
0.52941200 0.51924600 0.50696700 0.50321800
0.53333300 0.52336800 0.51121900 0.50756000
0.53725500 0.52744300 0.51539900 0.51184100
0.54117600 0.53145800 0.51951500 0.51606300
0.54509800 0.53541600 0.52357200 0.52023100
0.54902000 0.53931900 0.52757000 0.52435300
0.55294100 0.54319100 0.53151900 0.52843300
0.55686300 0.54704700 0.53541800 0.53247500
0.56078400 0.55086800 0.53928400 0.53648000
0.56470600 0.55464600 0.54314100 0.54045800
0.56862700 0.55838600 0.54698800 0.54443200
0.57254900 0.56210500 0.55081100 0.54838900
0.57647100 0.56581000 0.55461400 0.55231600
0.58039200 0.56951200 0.55842700 0.55622100
0.58431400 0.57321200 0.56225300 0.56012300
0.58823500 0.57688500 0.56610700 0.56402300
0.59215700 0.58051400 0.56998900 0.56793400
0.59607800 0.58411400 0.57386200 0.57185300
0.60000000 0.58771400 0.57770800 0.57574100
0.60392200 0.59132300 0.58154000 0.57958700
0.60784300 0.59493500 0.58538400 0.58340300
0.61176500 0.59855000 0.58924000 0.58721200
0.61568600 0.60217200 0.59309800 0.59101200
0.61960800 0.60580600 0.59695400 0.59480200
0.62352900 0.60945200 0.60082000 0.59858300
0.62745100 0.61311500 0.60469900 0.60237400
0.63137300 0.61680100 0.60859700 0.60617900
0.63529400 0.62049200 0.61251900 0.60999800
0.63921600 0.62418100 0.61644500 0.61383100
0.64313700 0.62788800 0.62035800 0.61766200
0.64705900 0.63162300 0.62427600 0.62148200
0.65098000 0.63538100 0.62820900 0.62530200
0.65490200 0.63916100 0.63216000 0.62914100
0.65882400 0.64298100 0.63613500 0.63299500
0.66274500 0.64684400 0.64014700 0.63686700
0.66666700 0.65075300 0.64419200 0.64077100
0.67058800 0.65472700 0.64828200 0.64470900
0.67451000 0.65877900 0.65243500 0.64869200
0.67843100 0.66291700 0.65666400 0.65273400
0.68235300 0.66714300 0.66097600 0.65684800
0.68627500 0.67137700 0.66536200 0.66104000
0.69019600 0.67554200 0.66968900 0.66531200
0.69411800 0.67963800 0.67391500 0.66958000
0.69803900 0.68367600 0.67804500 0.67378100
0.70196100 0.68766900 0.68209900 0.67791400
0.70588200 0.69163900 0.68608800 0.68199100
0.70980400 0.69560100 0.69003000 0.68602200
0.71372500 0.69957100 0.69394700 0.69002300
0.71764700 0.70355200 0.69784400 0.69401300
0.72156900 0.70754700 0.70172700 0.69800100
0.72549000 0.71155200 0.70559900 0.70199200
0.72941200 0.71557300 0.70945700 0.70598500
0.73333300 0.71961700 0.71331300 0.70997500
0.73725500 0.72368300 0.71717500 0.71397300
0.74117600 0.72778600 0.72103600 0.71799400
0.74509800 0.73191300 0.72490000 0.72203500
0.74902000 0.73604600 0.72875600 0.72609400
0.75294100 0.74018600 0.73260400 0.73015100
0.75686300 0.74432200 0.73645400 0.73420300
0.76078400 0.74845300 0.74030200 0.73825600
0.76470600 0.75259900 0.74414700 0.74231300
0.76862700 0.75676700 0.74799600 0.74637400
0.77254900 0.76094900 0.75186300 0.75046400
0.77647100 0.76513800 0.75573700 0.75457400
0.78039200 0.76933900 0.75961900 0.75870000
0.78431400 0.77354300 0.76351300 0.76284100
0.78823500 0.77773100 0.76742700 0.76700200
0.79215700 0.78192000 0.77133200 0.77117000
0.79607800 0.78611900 0.77522400 0.77532600
0.80000000 0.79032600 0.77913500 0.77948800
0.80392200 0.79455500 0.78306700 0.78366900
0.80784300 0.79882400 0.78702200 0.78787100
0.81176500 0.80312400 0.79100800 0.79210600
0.81568600 0.80738900 0.79504000 0.79638900
0.81960800 0.81160900 0.79910200 0.80070100
0.82352900 0.81579200 0.80314000 0.80497500
0.82745100 0.81994900 0.80715500 0.80920800
0.83137300 0.82410800 0.81115900 0.81341600
0.83529400 0.82827600 0.81516400 0.81761700
0.83921600 0.83245000 0.81919300 0.82183500
0.84313700 0.83662600 0.82325200 0.82607000
0.84705900 0.84079200 0.82733400 0.83031800
0.85098000 0.84494300 0.83143500 0.83457100
0.85490200 0.84907100 0.83553300 0.83881000
0.85882400 0.85320300 0.83962600 0.84304000
0.86274500 0.85735600 0.84371900 0.84727100
0.86666700 0.86150600 0.84783800 0.85152700
0.87058800 0.86562200 0.85199700 0.85581300
0.87451000 0.86971600 0.85618400 0.86008300
0.87843100 0.87379200 0.86035200 0.86432100
0.88235300 0.87785700 0.86450600 0.86854000
0.88627500 0.88193800 0.86865800 0.87274400
0.89019600 0.88603900 0.87281500 0.87695600
0.89411800 0.89016800 0.87700300 0.88118600
0.89803900 0.89428600 0.88122100 0.88543800
0.90196100 0.89839100 0.88548300 0.88970500
0.90588200 0.90249600 0.88975300 0.89396800
0.90980400 0.90660700 0.89402200 0.89823100
0.91372500 0.91072400 0.89829500 0.90249700
0.91764700 0.91482100 0.90257800 0.90677400
0.92156900 0.91889900 0.90687300 0.91104500
0.92549000 0.92299100 0.91115700 0.91529700
0.92941200 0.92709000 0.91544600 0.91956300
0.93333300 0.93118000 0.91977200 0.92384400
0.93725500 0.93526400 0.92410800 0.92811600
0.94117600 0.93934200 0.92845200 0.93239100
0.94509800 0.94342100 0.93280300 0.93666500
0.94902000 0.94750000 0.93716800 0.94095000
0.95294100 0.95157900 0.94154800 0.94524000
0.95686300 0.95565400 0.94594000 0.94953300
0.96078400 0.95973000 0.95034500 0.95383200
0.96470600 0.96380300 0.95476200 0.95813500
0.96862700 0.96787500 0.95919300 0.96244100
0.97254900 0.97194500 0.96363500 0.96675300
0.97647100 0.97601200 0.96808700 0.97106500
0.98039200 0.98007700 0.97254800 0.97537900
0.98431400 0.98413900 0.97701700 0.97969400
0.98823500 0.98819800 0.98149600 0.98401100
0.99215700 0.99225400 0.98598400 0.98832900
0.99607800 0.99630800 0.99048000 0.99264800
1.00000000 1.00000000 0.99498600 0.99696900
END_DATA
